svg_80x80/apple.svg

<svg viewBox="0 0 80 80" xmlns="http://www.w3.org/2000/svg">
<rect width="100%" height="100%" fill="white"/>
<path d="M39.8639 21.0835C47.3561 21.7953 53.822 13.2538 52.7483 6C50.9011 6.14355 49.1013 6.6622 47.4561 7.52506C45.8109 8.38792 44.3539 9.57734 43.1719 11.0225C41.9524 12.3691 41.0274 13.9614 40.4574 15.6952C39.8874 17.4289 39.6851 19.2651 39.8639 21.0835Z" fill="black"/>
<path d="M63.2484 58.9682C64.3207 56.9834 65.191 54.8932 65.8458 52.7301C60.8958 50.3148 57.801 46.5399 57.4615 40.8696C57.122 35.1993 59.6879 31.0325 64.2274 27.9535L63.8879 27.4496C60.201 22.0752 52.8825 20.1638 47.3088 22.0752C46.0465 22.5113 44.8013 22.9864 43.5544 23.4622C43.109 23.6322 42.6633 23.8022 42.2166 23.9706C41.1501 24.3903 39.9672 24.3903 38.9007 23.9706C38.6031 23.8571 38.3056 23.7446 38.0082 23.6322C37.154 23.3092 36.3019 22.9871 35.4586 22.643C32.8987 21.5116 30.0466 21.2479 27.3269 21.8913C21.6584 23.3148 17.9478 26.9538 15.911 32.3921C14.2215 36.8628 14.2215 41.4774 15.011 46.116C16.1051 52.9377 18.9166 59.3584 23.1742 64.7585C24.2083 66.1671 25.4244 67.4287 26.7901 68.5094C27.5919 69.1634 28.5325 69.62 29.538 69.8434C30.5435 70.0669 31.5865 70.051 32.5849 69.797C33.9303 69.4275 35.2492 68.9652 36.5323 68.4134C38.8798 67.3499 41.5092 67.1052 44.0087 67.7176C45.3305 68.1282 46.6275 68.6169 47.893 69.1812C49.5723 69.8923 51.4257 70.0681 53.2062 69.685C55.1104 69.176 56.807 68.0704 58.0536 66.526C60.0635 64.2152 61.8064 61.6795 63.2484 58.9682Z" fill="black"/>
</svg>

<svg xmlns="http://www.w3.org/2000/svg" viewBox="0 0 80 80">
  <rect width="100%" height="100%" fill="#fff"/>
  <path d="M39.9 21c7.5.8 14-7.7 12.8-15a13.7 13.7 0 0 0-9.5 5 13 13 0 0 0-3.3 10Z"/>
  <path d="M63.2 59c1.1-2 2-4.1 2.6-6.3-4.9-2.4-8-6.2-8.3-11.8-.4-5.7 2.2-9.9 6.7-13l-.3-.5c-3.7-5.3-11-7.2-16.6-5.3a125.4 125.4 0 0 0-5 1.9c-1.1.4-2.3.4-3.4 0l-.9-.4-2.5-1a12.8 12.8 0 0 0-8.2-.7c-5.6 1.4-9.4 5-11.4 10.5-1.7 4.5-1.7 9-.9 13.7a40.5 40.5 0 0 0 11.8 22.4 6.6 6.6 0 0 0 5.8 1.3c1.3-.4 2.6-.8 4-1.4 2.3-1 5-1.3 7.4-.7l3.9 1.5c1.7.7 3.5.9 5.3.5a9.3 9.3 0 0 0 4.9-3.2c2-2.3 3.7-4.8 5.1-7.5Z"/>
</svg>
